other/svg-icons/download.svg

<!-- Downloaded from @radix-ui/icons -->
<!-- License https://github.com/radix-ui/icons/blob/master/LICENSE -->
<!-- https://github.com/radix-ui/icons/blob/master/packages/radix-icons/icons/download.svg -->
<!-- @radix-ui/icons -->
<!-- https://github.com/radix-ui/icons/blob/master/LICENSE -->
<svg width="15" height="15" viewBox="0 0 15 15" fill="none" xmlns="http://www.w3.org/2000/svg">
  <path
    fill-rule="evenodd"
    clip-rule="evenodd"
    d="M7.50005 1.04999C7.74858 1.04999 7.95005 1.25146 7.95005 1.49999V8.41359L10.1819 6.18179C10.3576 6.00605 10.6425 6.00605 10.8182 6.18179C10.994 6.35753 10.994 6.64245 10.8182 6.81819L7.81825 9.81819C7.64251 9.99392 7.35759 9.99392 7.18185 9.81819L4.18185 6.81819C4.00611 6.64245 4.00611 6.35753 4.18185 6.18179C4.35759 6.00605 4.64251 6.00605 4.81825 6.18179L7.05005 8.41359V1.49999C7.05005 1.25146 7.25152 1.04999 7.50005 1.04999ZM2.5 10C2.77614 10 3 10.2239 3 10.5V12C3 12.5539 3.44565 13 3.99635 13H11.0012C11.5529 13 12 12.5528 12 12V10.5C12 10.2239 12.2239 10 12.5 10C12.7761 10 13 10.2239 13 10.5V12C13 13.1041 12.1062 14 11.0012 14H3.99635C2.89019 14 2 13.103 2 12V10.5C2 10.2239 2.22386 10 2.5 10Z"
    fill="currentColor"
  />
</svg>

<!-- Downloaded from radix-icons/download.svg -->
<svg xmlns="http://www.w3.org/2000/svg" width="1em" height="1em" viewBox="0 0 15 15"><path fill="currentColor" d="M12.5 10a.5.5 0 0 1 .5.5V12a2 2 0 0 1-1.999 2H3.996A1.997 1.997 0 0 1 2 12v-1.5a.5.5 0 1 1 1 0V12c0 .554.446 1 .996 1h7.005A1 1 0 0 0 12 12v-1.5a.5.5 0 0 1 .5-.5m-5-8.95a.45.45 0 0 1 .45.45v6.913l2.232-2.231a.45.45 0 0 1 .636.637l-3 3a.45.45 0 0 1-.636 0l-3-3a.45.45 0 0 1 .636-.637L7.05 8.413V1.5a.45.45 0 0 1 .45-.45"/></svg>
